X: 110
T:Eli Greene's Cakewalk
C:Sadie Koninsky
M:C|
K:G
"Em"E3FG2F2|EFGAB2e2|"Em"E3FG2F2|EFGAB2B2|"Am"c3c"Em"B2B2|
"Am"c3c"Em"B4|1B3c BAGA|"B7"B2A2G2F2:|2"Em"B3c "B7"BAGF|"Em"E4"D"D4||
|:"G"d^cde dcde|d2B2G2A2|"Em"A(B B)c BAGA|"G"B2G2D2E2|
"D"D3D"A7"G2G2|"D7"F2d2d4|d^cde d=cBA|1"G"G2B2G4:|2"G"G2B2G2"B7"F2||
